X:520
T: Se\'an Ryan's
T: Port She\'ain U\'i Riain
S: B.Breathnach:"Ceol Rince na hEireann" III/4
Z: B.Black
N: Low G in m3 incorrectly printed as low F
L: 1/8
M: 6/8
R: jig
K: Ador
B|AGE EDE|GAB cBA|GDB, G,B,D|GAB cBc|
AGE E3|GAB c2d|eag edB|cAA A2 :|
B|cBA aga|bag edB|GBd g3|age dBG|
ABA a3|bag edB|GBd gfg|edB A2 :|
